synths/sDEFI.svg

<svg width="42" height="42" viewBox="0 0 42 42" fill="none" xmlns="http://www.w3.org/2000/svg">
<g clip-path="url(#clip0_7277_57799)">
<mask id="mask0_7277_57799" style="mask-type:alpha" maskUnits="userSpaceOnUse" x="0" y="0" width="42" height="42">
<circle cx="21" cy="21" r="21" fill="url(#paint0_linear_7277_57799)"/>
</mask>
<g mask="url(#mask0_7277_57799)">
<circle cx="21" cy="21" r="21" fill="#34EDB3"/>
<circle cx="21" cy="21" r="18.2" fill="white"/>
</g>
<circle cx="21" cy="21" r="16.1" fill="#06061B"/>
<circle cx="21" cy="21" r="16.1" fill="#06061B"/>
<path d="M18.15 11.7C18.073 11.6119 17.9781 11.5677 17.8653 11.5677H15.5567C15.5362 11.5677 15.5194 11.5612 15.5068 11.5482C15.494 11.5355 15.4875 11.521 15.4875 11.5055V9.94975C15.4875 9.93426 15.494 9.92002 15.5068 9.90704C15.5194 9.89406 15.5362 9.88757 15.5567 9.88757H17.9962C18.6117 9.88757 19.1428 10.1392 19.5891 10.6421L20.1817 11.3655L19.0274 12.7734L18.15 11.7ZM22.4133 10.6344C22.8597 10.1365 23.3932 9.88757 24.0139 9.88757H26.4457C26.4662 9.88757 26.4815 9.89281 26.4919 9.90307C26.502 9.91353 26.5072 9.92903 26.5072 9.94975V11.5055C26.5072 11.521 26.502 11.5355 26.4919 11.5482C26.4815 11.5612 26.4662 11.5677 26.4457 11.5677H24.1372C24.0243 11.5677 23.9294 11.6119 23.8524 11.7L22.1518 13.7691L23.8601 15.8537C23.9371 15.9368 24.0293 15.9783 24.1372 15.9783H26.4457C26.4662 15.9783 26.4815 15.9848 26.4919 15.9978C26.502 16.0107 26.5072 16.0277 26.5072 16.0482V17.604C26.5072 17.6195 26.502 17.6339 26.4919 17.6467C26.4815 17.6597 26.4662 17.6662 26.4457 17.6662H24.0139C23.3932 17.6662 22.8622 17.4147 22.421 16.9116L21.0052 15.1848L19.5891 16.9116C19.1428 17.4147 18.6092 17.6662 17.9885 17.6662H15.5567C15.5362 17.6662 15.5207 17.6597 15.5105 17.6467C15.5002 17.6337 15.4952 17.617 15.4952 17.596V16.0403C15.4952 16.0248 15.5002 16.0105 15.5105 15.9976C15.5207 15.9846 15.5362 15.9781 15.5567 15.9781H17.8653C17.973 15.9781 18.0678 15.9341 18.15 15.8458L19.8198 13.8079L22.4133 10.6344Z" fill="#00D1FF"/>
<path fill-rule="evenodd" clip-rule="evenodd" d="M11.3682 28.6879C11.1009 28.524 10.9375 28.2321 10.9375 27.9186V26.1681C10.9375 26.1011 10.9554 26.0365 10.9888 25.9791C11.0926 25.7996 11.3228 25.7386 11.5018 25.8439L15.4411 28.1471C15.6714 28.2823 15.8134 28.5288 15.8134 28.7968V30.6107C15.8134 30.6932 15.7907 30.7758 15.7477 30.8464C15.6177 31.0594 15.3409 31.1264 15.1285 30.9959L11.3682 28.6879ZM17.2402 25.3641C17.4704 25.4993 17.6124 25.7458 17.6124 26.0138V29.6942C17.6124 29.8031 17.5539 29.9035 17.4597 29.9562L16.5971 30.4432C16.5864 30.4492 16.5745 30.454 16.5626 30.4575V28.4139C16.5626 28.1495 16.4242 27.9042 16.1975 27.7678L12.7378 25.6919V23.3851C12.7378 23.3181 12.7557 23.2535 12.7891 23.1961C12.8928 23.0166 13.1231 22.9556 13.302 23.0609L17.2402 25.3641ZM18.9641 22.6457C19.1955 22.7797 19.3375 23.0286 19.3375 23.2966V28.6724C19.3375 28.7825 19.2766 28.8841 19.18 28.9368L18.3628 29.3795V25.6369C18.3628 25.3725 18.2244 25.1284 17.999 24.992L14.4628 22.8646V20.6763C14.4628 20.6093 14.4807 20.5447 14.513 20.4872C14.6167 20.3078 14.847 20.2467 15.026 20.3508L18.9641 22.6457Z" fill="#00D395"/>
<path d="M23.976 23.8674C23.9754 23.8763 23.975 23.8851 23.975 23.894V30.2249C23.975 30.2755 23.985 30.3257 24.0043 30.3725C24.0237 30.4193 24.0522 30.4619 24.088 30.4977C24.1238 30.5335 24.1664 30.562 24.2132 30.5813C24.26 30.6007 24.3102 30.6107 24.3608 30.6107C24.5739 30.6107 24.7467 30.438 24.7467 30.2249V29.1029C24.7467 28.8898 24.9194 28.717 25.1324 28.717C25.2348 28.7171 25.3329 28.7577 25.4053 28.8301C25.4776 28.9024 25.5183 29.0006 25.5183 29.1029V29.6348C25.5183 29.7371 25.5589 29.8353 25.6313 29.9076C25.7037 29.98 25.8018 30.0206 25.9041 30.0206C25.9548 30.0206 26.005 30.0107 26.0518 29.9913C26.0986 29.9719 26.1411 29.9435 26.1769 29.9076C26.2128 29.8718 26.2412 29.8293 26.2606 29.7825C26.28 29.7356 26.2899 29.6855 26.2899 29.6348V29.1029C26.2899 28.8898 26.4626 28.717 26.6758 28.717C26.8888 28.717 27.0616 28.8898 27.0616 29.1029V29.2481C27.0616 29.3504 27.1023 29.4486 27.1746 29.5209C27.247 29.5933 27.3451 29.6339 27.4474 29.6339C27.5497 29.6339 27.6479 29.5933 27.7202 29.5209C27.7926 29.4486 27.8332 29.3504 27.8332 29.2481V29.1029C27.8332 28.8898 28.006 28.717 28.219 28.717C28.4322 28.717 28.6049 28.8898 28.6049 29.1029V29.6348C28.6049 29.6855 28.6149 29.7356 28.6343 29.7824C28.6537 29.8292 28.6821 29.8718 28.7179 29.9076C28.7537 29.9434 28.7963 29.9719 28.8431 29.9913C28.8899 30.0106 28.94 30.0206 28.9907 30.0206C29.0414 30.0206 29.0915 30.0107 29.1384 29.9913C29.1852 29.9719 29.2277 29.9435 29.2635 29.9076C29.2994 29.8718 29.3278 29.8293 29.3472 29.7825C29.3666 29.7356 29.3766 29.6855 29.3766 29.6348V29.1029C29.3766 29.0006 29.4172 28.9024 29.4896 28.8301C29.5619 28.7577 29.6601 28.7171 29.7624 28.717C29.9755 28.717 30.1482 28.8898 30.1482 29.1029V30.2249C30.1482 30.438 30.3209 30.6107 30.5341 30.6107C30.6364 30.6107 30.7345 30.5701 30.8069 30.4977C30.8792 30.4253 30.9199 30.3272 30.9199 30.2249V23.894C30.9199 23.8851 30.9195 23.8762 30.9188 23.8674C30.8762 21.9866 29.3384 20.475 27.4474 20.475C25.5564 20.475 24.0186 21.9866 23.976 23.8674ZM28.11 23.7145C28.11 23.3232 28.3866 23.006 28.7278 23.006C29.069 23.006 29.3457 23.3232 29.3457 23.7145C29.3457 24.1058 29.069 24.423 28.7278 24.423C28.3866 24.423 28.11 24.1058 28.11 23.7145ZM25.5492 23.7145C25.5492 23.3232 25.8258 23.006 26.167 23.006C26.5082 23.006 26.7849 23.3232 26.7849 23.7145C26.7849 24.1058 26.5082 24.423 26.167 24.423C25.8258 24.423 25.5492 24.1058 25.5492 23.7145ZM28.0358 25.0109C28.0358 25.2386 27.7848 25.4231 27.4751 25.4231C27.1654 25.4231 26.9144 25.2386 26.9144 25.0109C26.9144 24.7833 27.1654 24.9206 27.4751 24.9206C27.7848 24.9206 28.0358 24.7833 28.0358 25.0109Z" fill="url(#paint1_linear_7277_57799)"/>
</g>
<defs>
<linearGradient id="paint0_linear_7277_57799" x1="21" y1="0" x2="21" y2="61.4091" gradientUnits="userSpaceOnUse">
<stop stop-color="#08021E"/>
<stop offset="1" stop-color="#1F0777"/>
</linearGradient>
<linearGradient id="paint1_linear_7277_57799" x1="23.975" y1="30.625" x2="29.8375" y2="21.5687" gradientUnits="userSpaceOnUse">
<stop stop-color="#50B5AC"/>
<stop offset="1" stop-color="#B22F92"/>
</linearGradient>
<clipPath id="clip0_7277_57799">
<rect width="42" height="42" fill="white"/>
</clipPath>
</defs>
</svg>

<svg xmlns="http://www.w3.org/2000/svg" width="42" height="42" fill="none"><g clip-path="url(#a)"><mask id="c" width="42" height="42" x="0" y="0" maskUnits="userSpaceOnUse" style="mask-type:alpha"><circle cx="21" cy="21" r="21" fill="url(#b)"/></mask><g mask="url(#c)"><circle cx="21" cy="21" r="21" fill="#34EDB3"/><circle cx="21" cy="21" r="18.2" fill="#fff"/></g><circle cx="21" cy="21" r="16.1" fill="#06061B"/><circle cx="21" cy="21" r="16.1" fill="#06061B"/><path fill="#00D1FF" d="M18.15 11.7a.364.364 0 0 0-.285-.132h-2.308a.067.067 0 0 1-.05-.02.06.06 0 0 1-.02-.043V9.95a.06.06 0 0 1 .02-.043.067.067 0 0 1 .05-.02h2.44c.615 0 1.146.252 1.592.755l.593.724-1.155 1.407-.877-1.073Zm4.263-1.066c.447-.498.98-.746 1.6-.746h2.433c.02 0 .035.005.046.015.01.01.015.026.015.047v1.556c0 .015-.005.03-.015.042-.01.013-.026.02-.046.02h-2.309a.364.364 0 0 0-.285.132l-1.7 2.07 1.708 2.084c.077.083.17.124.277.124h2.309c.02 0 .035.007.046.02a.08.08 0 0 1 .015.05v1.556c0 .015-.005.03-.015.043-.01.013-.026.02-.046.02h-2.432c-.62 0-1.152-.252-1.593-.755l-1.416-1.727-1.416 1.727c-.446.503-.98.754-1.6.754h-2.432c-.02 0-.036-.006-.046-.02a.079.079 0 0 1-.016-.05V16.04c0-.015.005-.03.016-.042.01-.013.025-.02.046-.02h2.308a.378.378 0 0 0 .285-.132l1.67-2.038 2.593-3.174Z"/><path fill="#00D395" fill-rule="evenodd" d="M11.368 28.688a.903.903 0 0 1-.43-.77v-1.75a.374.374 0 0 1 .564-.324l3.94 2.303c.23.135.371.382.371.65v1.814a.45.45 0 0 1-.685.385l-3.76-2.308Zm5.872-3.324c.23.135.372.382.372.65v3.68a.3.3 0 0 1-.152.262l-.863.487a.168.168 0 0 1-.034.014v-2.043a.754.754 0 0 0-.365-.646l-3.46-2.076v-2.307a.374.374 0 0 1 .564-.324l3.938 2.303Zm1.724-2.718a.752.752 0 0 1 .373.65v5.376c0 .11-.06.212-.157.265l-.817.442v-3.742a.754.754 0 0 0-.364-.645l-3.536-2.127v-2.189a.375.375 0 0 1 .563-.326l3.938 2.296Z" clip-rule="evenodd"/><path fill="url(#d)" d="M23.976 23.867a.394.394 0 0 0-.001.027v6.33a.387.387 0 0 0 .386.387.386.386 0 0 0 .386-.386v-1.122a.386.386 0 1 1 .771 0v.532a.386.386 0 1 0 .772 0v-.532a.386.386 0 1 1 .772 0v.145a.386.386 0 0 0 .771 0v-.145a.386.386 0 0 1 .772 0v.532a.385.385 0 0 0 .772 0v-.532a.386.386 0 1 1 .771 0v1.122a.386.386 0 1 0 .772 0v-6.331l-.001-.027a3.472 3.472 0 0 0-6.943 0Zm4.134-.152c0-.392.277-.709.618-.709.341 0 .618.317.618.709 0 .39-.277.708-.618.708-.341 0-.618-.317-.618-.708Zm-2.56 0c0-.392.276-.709.617-.709.341 0 .618.317.618.709 0 .39-.277.708-.618.708-.341 0-.618-.317-.618-.708Zm2.486 1.296c0 .228-.251.412-.56.412-.31 0-.562-.184-.562-.412 0-.228.251-.09.561-.09.31 0 .56-.138.56.09Z"/></g><defs><linearGradient id="b" x1="21" x2="21" y1="0" y2="61.409" gradientUnits="userSpaceOnUse"><stop stop-color="#08021E"/><stop offset="1" stop-color="#1F0777"/></linearGradient><linearGradient id="d" x1="23.975" x2="29.837" y1="30.625" y2="21.569" gradientUnits="userSpaceOnUse"><stop stop-color="#50B5AC"/><stop offset="1" stop-color="#B22F92"/></linearGradient><clipPath id="a"><path fill="#fff" d="M0 0h42v42H0z"/></clipPath></defs></svg>
